svgs/solid/barcode-read.svg

<svg xmlns="http://www.w3.org/2000/svg" viewBox="0 0 576 512"><!--! Font Awesome Pro 6.5.1 by @fontawesome - https://fontawesome.com License - https://fontawesome.com/license (Commercial License) Copyright 2023 Fonticons, Inc. --><path d="M56 48c-4.4 0-8 3.6-8 8v80c0 13.3-10.7 24-24 24s-24-10.7-24-24V56C0 25.1 25.1 0 56 0h80c13.3 0 24 10.7 24 24s-10.7 24-24 24H56zm96 80h16c13.3 0 24 10.7 24 24V360c0 13.3-10.7 24-24 24H152c-13.3 0-24-10.7-24-24V152c0-13.3 10.7-24 24-24zm160 0h16c13.3 0 24 10.7 24 24V360c0 13.3-10.7 24-24 24H312c-13.3 0-24-10.7-24-24V152c0-13.3 10.7-24 24-24zm72 24c0-13.3 10.7-24 24-24h16c13.3 0 24 10.7 24 24V360c0 13.3-10.7 24-24 24H408c-13.3 0-24-10.7-24-24V152zM240 128c8.8 0 16 7.2 16 16V368c0 8.8-7.2 16-16 16s-16-7.2-16-16V144c0-8.8 7.2-16 16-16zM528 56c0-4.4-3.6-8-8-8H440c-13.3 0-24-10.7-24-24s10.7-24 24-24h80c30.9 0 56 25.1 56 56v80c0 13.3-10.7 24-24 24s-24-10.7-24-24V56zM56 464h80c13.3 0 24 10.7 24 24s-10.7 24-24 24H56c-30.9 0-56-25.1-56-56V376c0-13.3 10.7-24 24-24s24 10.7 24 24v80c0 4.4 3.6 8 8 8zm472-8V376c0-13.3 10.7-24 24-24s24 10.7 24 24v80c0 30.9-25.1 56-56 56H440c-13.3 0-24-10.7-24-24s10.7-24 24-24h80c4.4 0 8-3.6 8-8z"/></svg>

<svg xmlns="http://www.w3.org/2000/svg" viewBox="0 0 576 512"><!--! Font Awesome Pro 6.1.1 by @fontawesome - https://fontawesome.com License - https://fontawesome.com/license (Commercial License) Copyright 2022 Fonticons, Inc. --><path d="M56 48C51.58 48 48 51.58 48 56V136C48 149.3 37.25 160 24 160C10.75 160 0 149.3 0 136V56C0 25.07 25.07 0 56 0H136C149.3 0 160 10.75 160 24C160 37.25 149.3 48 136 48H56zM168 128C181.3 128 192 138.7 192 152V360C192 373.3 181.3 384 168 384H152C138.7 384 128 373.3 128 360V152C128 138.7 138.7 128 152 128H168zM328 128C341.3 128 352 138.7 352 152V360C352 373.3 341.3 384 328 384H312C298.7 384 288 373.3 288 360V152C288 138.7 298.7 128 312 128H328zM384 152C384 138.7 394.7 128 408 128H424C437.3 128 448 138.7 448 152V360C448 373.3 437.3 384 424 384H408C394.7 384 384 373.3 384 360V152zM256 144V368C256 376.8 248.8 384 240 384C231.2 384 224 376.8 224 368V144C224 135.2 231.2 128 240 128C248.8 128 256 135.2 256 144zM528 56C528 51.58 524.4 48 520 48H440C426.7 48 416 37.25 416 24C416 10.75 426.7 0 440 0H520C550.9 0 576 25.07 576 56V136C576 149.3 565.3 160 552 160C538.7 160 528 149.3 528 136V56zM136 464C149.3 464 160 474.7 160 488C160 501.3 149.3 512 136 512H56C25.07 512 0 486.9 0 456V376C0 362.7 10.75 352 24 352C37.25 352 48 362.7 48 376V456C48 460.4 51.58 464 56 464H136zM528 376C528 362.7 538.7 352 552 352C565.3 352 576 362.7 576 376V456C576 486.9 550.9 512 520 512H440C426.7 512 416 501.3 416 488C416 474.7 426.7 464 440 464H520C524.4 464 528 460.4 528 456V376z"/></svg>
